X: 15840
T: Gort Na Mona
R: jig
M: 6/8
K: Gmajor
G2A B/c/dB B2A|~G3 GAG E2D|D2G GDd BAG|~A3 ABc dcA|
G2A B/c/dB B2A|~G3 GAG E2D|D2D BAG ABc|d2d dge fga|
b2a age deg|a2g gfg ded|g2f2d2 BAG|ABc dge fga|
b2a a2b agf|~e3 deg B2c|A3- AB/A/G ABc|d3 z gf dcA:|

